!!!COM: Mendelssohn, Felix 
!!!CDT: 1809///-1847///
!!!OTL: Sonata in B-flat minor for piano in one movement
**kern	**kern
=1-	=1-
*clefF4	*clefG2
*k[]	*k[]
*met(C)	*met(C)
*M4/4	*M4/4
*MM40	*MM40
1BBB- 1BB-	4D-/ 4F/ 4B-/
.	8.F/L 8.B-/ 8.d-/
.	16D-/Jk 16F/ 16B-/
.	8C'/L 8E-/ 8G-/ 8B-/
.	8A'/J
.	4r
=2	=2
*	*^
1BBB- [1BB-	4ee-/	2g-\ 2a\ 2cc\
.	8.gg-/L	.
.	16ee-/Jk	.
.	8ee-'/L	4f\ 4a-\ 4cc-\
.	8dd'/J	.
*	*v	*v
.	4r
=3	=3
*	*^
2BB-/]	[2cc-/	2r
2BB-/ 2F/ 2A-/	(8cc-/L]	2d\ 2f\
.	8b-/)	.
.	8b-'/	.
.	8b-'/J	.
=4	=4	=4
4E-\ 4G-\	12b-/L	4e-\ 4g-\
.	(12gg-/	.
.	12dd/J	.
*	*v	*v
4r	12ee-/L
.	12a/
.	12b-/J
2r	12f/L
.	12g-/
.	12d/J
*	*^
.	12e-/L	[4e-\
.	12g-/	.
.	12b-/J)	.
=5	=5	=5
4.F\ 4.c\	(4b-/	1e-_ [1g-
.	8a/)	.
8r	8r	.
4.c\	(4b-/	.
.	8a/)	.
8r	8r	.
=6	=6	=6
4.c\	(4b-/	1e-] 1g-]
.	8a/)	.
8r	8r	.
2r	2r	.
*	*v	*v
=7!|:	=7!|:
*M3/4	*M3/4
*MM120	*MM120
4B-\	4f/ 4dd-/
4c\	4f/ 4cc/
4d-\	4f/ 4b-/
=8	=8
*	*^
2.e-\	(2b-/	2.g-\
.	4a/)	.
*	*v	*v
=9	=9
4d-\	4f/ 4b-/
4c\	4f/ 4cc/
4B-\	4f/ 4dd-/
=10	=10
*	*^
2.A\ 2.c\	(2ff/	2.f\
.	4ee-/)	.
*	*v	*v
=11	=11
4B-\ 4d-\	4b-\ 4dd-\
4B-\ 4c\ 4e-\	4a\ 4bb-\
4B-\ 4d\ 4f\	4a-\ 4bb-\
=12	=12
*	*^
[2.E-\ [2.e-\	2bb-/	[2.g-\
.	8aa-/L	.
.	8gg-/J	.
=13	=13	=13
2.E-\] 2.e-\]	8ff/L	2.g-\]
.	8ee-/	.
.	8dd-/	.
.	8cc/	.
.	8gg-/	.
.	8cc/J	.
*	*v	*v
=14	=14
*^	*
4d-/	2F\	2f/ 2b-/
4c/	.	.
*v	*v	*
4r	8a/
.	8r
=15	=15
4B-\ 4d-\	4f/ 4dd-/
4B-\ 4c\ 4e-\	4f/ 4cc/
4B-\ 4d-\ 4f\	4f/ 4b-/
=16	=16
*	*^
2.B-\ 2.c\ 2.e-\	2b-/	2.g-\
.	4a/	.
*	*v	*v
=17	=17
4B-\ 4d-\ 4f\	4f/ 4b-/
4B-\ 4c\ 4e-\	4f/ 4cc/
4B-\ 4d-\	4f/ 4dd-/
=18	=18
*	*^
2.A\ 2.c\	2ff/	2.f\
.	4ee-/	.
*	*v	*v
=19	=19
4B-\ 4d-\	4b-\ 4dd-\
4B-\ 4c\ 4e-\	4a\ 4bb-\
4B-\ 4d\ 4f\	4a-\ 4bb-\
=20	=20
*	*^
[2.E-\ [2.e-\	2bb-/	[2.g-\
.	8aa-/L	.
.	8gg-/J	.
=21	=21	=21
2.E-\] 2.e-\]	8ff/L	2.g-\]
.	8ee-/	.
.	8dd/	.
.	8ee-/	.
.	8gg-/	.
.	8ee-/J	.
*	*v	*v
=22	=22
4r	(8dd-\L
.	8cc\J)
4A-\ 4e-\ 4g-\	8r
.	8ee-'\L
4r	8gg-'\
.	8ee-'\J
=23	=23
4r	(8dd-\L
.	8cc\J)
4B--\ 4e-\ 4g-\	8r
.	8ee-'\L
4r	8gg-'\
.	8ee-'\J
=24	=24
*^	*
[2.e-/ [2.g-/	4r	(8dd-\L
.	.	8cc\J)
.	4A-\	8r
.	.	8cc'\L
.	4r	8gg-'\
.	.	8ee-'\J
=25	=25	=25
2.e-/] 2.g-/]	4r	(8dd-\L
.	.	8cc\J)
.	4B--\	8r
.	.	8cc\L
.	4r	(8gg-\
.	.	[8ee-\J
*v	*v	*
=26	=26
(8A-\L 8a-\	[2.cc\) 2.ee-\_ [2.gg-\
8e-\	.
8c\	.
8e-\	.
8c\	.
8A-\J	.
=27	=27
8c\L	2.cc\_ 2.ee-\_ 2.gg-\_
8A-\	.
8E-\	.
8A-\	.
8E-\	.
8C\J	.
=28	=28
8E-/L	4cc\] 4ee-\] 4gg-\]
8C/	.
8AA-/	4cc\ 4ee-\ 4gg\
8C/	.
8AA-/	4cc\ 4ee-\ 4gg-\ 4aa-\
8EE-/J	.
=29	=29
8AA-/L	4cc\ 4ee-\ 4gg-\ 4bb--\
8EE-/	.
8CC/	4cc\ 4ee-\ 4gg-\ 4aa-\
8EE-/	.
8CC/	4cc\ 4ee-\ 4gg-\ 4aa-\
8AAA-/J)	.
=30	=30
8r	2.a-\ [2.dd-\ [2.ff\ [2.aa-\
(8f\L	.
8d-\	.
8f\	.
8d-\	.
8A-\J	.
=31	=31
8d-\L	2.dd-\_ 2.ff\_ 2.aa-\_
8A-\	.
8F\	.
8A-\	.
8F\	.
8D-\J	.
=32	=32
8F/L	4dd-\] 4ff\] 4aa-\]
8D-/	.
8AA-/	4dd-\ 4ff\ 4aa-\ 4bb-\
8D-/	.
8AA-/	4dd-\ 4ff\ 4aa-\ 4ccc\
8FF/J	.
=33	=33
8AA-/L	4dd-\ 4ff\ 4aa-\ 4ddd-\
8FF/	.
8DD-/	4dd-\ 4ff\ 4aa-\
8FF/	.
8DD-/	4dd-\ 4ff\ 4aa-\ 4ddd-\
8AAA-/J)	.
=34	=34
*clefG2	*
8r	[2.ee-\ 2.gg-\ [2.aa-\ [2.ccc\
(8cc/L	.
8a-/	.
8cc/	.
8a-/	.
8e-/J	.
=35	=35
8a-/L	2.ee-\] 2.gg-\ 2.aa-\] 2.ccc\]
8e-/	.
8c/	.
8e-/	.
8c/	.
8A-/J	.
=36	=36
*clefF4	*
8c\L	4ee-\ 4gg-\ 4aa-\ 4ccc\ 4eee-\
8A-\	.
8E-\	4ee-\ 4gg-\ 4aa-\ 4ddd-\
8A-\	.
8E-\	4ee-\ 4gg-\ 4aa-\ 4ccc\
8C\J	.
=37	=37
8E-/L	4ee-\ 4gg-\ 4bb-\
8C/	.
8AA-/	4ee-\ 4gg-\ 4aa-\
8C/	.
8AA-/	4a-\ 4ee-\ 4gg-\
8CC/J	.
=38	=38
4DD-/)	4a-\ 4ff\
4r	4ee-\
4r	4dd-\
=39	=39
*clefG2	*
2.d-/ 2.f/ 2.a-/	2cc\
.	4cc-\
=40	=40
[2.d-/ [2.g-/ 2.b-/	4bb-\
.	4aa-\
.	4gg-\
=41	=41
2.d-/] 2.g-/] 2.b--/	2ff\
.	4ee-\
=42	=42
[2.d-/ [2.e-/ [2.g-/ [2.a-/ [2.cc/	(4eee-'\
.	4ddd-'\
.	4ccc'\)
=43	=43
2.d-/] 2.e-/] 2.g-/] 2.a-/] 2.cc/]	2bb-\
.	4aa-\
=44	=44
*	*^
[2.d-/ [2.f/ [2.a-/	[2.ff/	4aaa-\
.	.	4ggg-\
.	.	4fff\
=45	=45	=45
2.d-/] 2.f/] 2.a-/]	2.ff/]	4eee-\
.	.	4ddd-\
.	.	4ccc\
*	*v	*v
=46	=46
*clefF4	*
4r	4bb-\
4G-\ 4B-\ 4d-\ 4e-\	8r
.	(8bb-'\L
4r	8aa-'\
.	8gg-'\J)
=47	=47
4r	(8ff'\L
.	8ee-'\J)
4G-\ 4B-\ 4d-\ 4e-\	8r
.	(8gg-'\L
4r	8ff'\
.	8ee-'\J)
=48	=48
4r	(8dd-\L
.	8cc\J)
4A-\ 4e-\ 4g-\	8r
.	(8c/L
4r	8B/
.	8c/J)
=49	=49
4r	(8e-/L
.	8a-/J)
4A-\ 4c\ 4e-\ 4g-\	8r
.	(8cc\L
4r	8ee-\
.	8ff\J)
=50	=50
[2.A-\ [2.c\ [2.e-\ [2.g-\	8gg-\L
.	8ee-\
.	8gg\
.	8ee-\
.	8aa-\
.	8ee-\J
=51	=51
2.A-\] 2.c\] 2.e-\] 2.g-\]	8bb-\L
.	8ee-\
.	8aa-\
.	8ee-\
.	8gg-\
.	8ee-\J
=52	=52
*clefG2	*
4d-/ 4f/ 4a-/	12ff\L
.	12cc\
.	12dd-\J
4d-/ 4f/ 4a-/	12ff\L
.	12cc\
.	12dd-\J
4d-/ 4f/ 4a-/	12ff\L
.	12cc\
.	12dd-\J
=53	=53
4d-/ 4f/ 4a-/ 4cc-/	12aa-\L
.	12ee\
.	12ff\J
4d-/ 4f/ 4a-/ 4cc-/	12aa-\L
.	12ee\
.	12ff\J
4d-/ 4f/ 4a-/ 4cc-/	12aa-\L
.	12ee\
.	12ff\J
=54	=54
4d-/ 4g-/ 4b-/	12ddd-\L
.	12ff\
.	12gg-\J
4d-/ 4g-/ 4b-/	12ddd-\L
.	12ff\
.	12gg-\J
4d-/ 4g-/ 4b-/	12ddd-\L
.	12ff\
.	12gg-\J
=55	=55
2.d-/ 2.g-/ 2.b--/	12eee-\L
.	12ff\
.	12gg-\J
.	12ddd-\L
.	12ff\
.	12gg-\J
.	12ccc\L
.	12ff\
.	12gg-\J
=56	=56
4d-/ 4f/ 4a-/	12ddd-\L
.	12cc\
.	12dd-\J
4d-/ 4f/ 4a-/	12ff\L
.	12cc\
.	12dd-\J
4d-/ 4f/ 4a-/	12ff\L
.	12cc\
.	12dd-\J
=57	=57
*^	*
2.cc-/	4d-\ 4f\ 4a-\	12aa-\L
.	.	12ee\
.	.	12ff\J
.	4d-\ 4f\ 4a-\	12aa-\L
.	.	12ee\
.	.	12ff\J
.	4d-\ 4f\ 4a-\	12aa-\L
.	.	12ee\
.	.	12ff\J
=58	=58	=58
2.g-/ 2.b-/	4d-\	12bb-\L
.	.	12ff\
.	.	12gg-\J
.	4d-\	12bb-\L
.	.	12ff\
.	.	12gg-\J
.	4d-\	12bb-\L
.	.	12ff\
.	.	12gg-\J
*v	*v	*
=59	=59
2.d-/ 2.g-/ 2.b--/	12eee-\L
.	12ff\
.	12gg-\J
.	12ddd-\L
.	12ff\
.	12gg-\J
.	12ccc\L
.	12ff\
.	12gg-\J
=60	=60
4d-/ 4f/ 4a-/	12ddd-\L
.	12ee\
.	12ff\J
4r	12ddd-\L
.	12ee\
.	12ff\J
4r	12ddd-\L
.	12ee\
.	12ff\J
=61	=61
*clefF4	*
2.FF/ 2.F/	12ccc\L
.	12dd\
.	12ee-\J
.	12ddd-\L
.	12ee\
.	12ff\J
.	12ccc\L
.	12dd\
.	12ee-\J
=62	=62
4GG-/ 4G-/	12bb-\L
.	12cc\
.	12dd-\J
4r	12bb-\L
.	12cc\
.	12dd-\J
4r	12bb-\L
.	12cc\
.	12dd-\J
=63	=63
2.D\ 2.d\	12aa-\L
.	12cc-\
.	12b-\J
.	12bb-\L
.	12cc-\
.	12b-\J
.	12aa-\L
.	12cc-\
.	12b-\J
=64	=64
*^	*
(4e-/	2.E-\	12gg-\L
.	.	12a\
.	.	12b-\J
4g-/	.	12bb-\L
.	.	12a\
.	.	12b-\J
4f/	.	12aa-\L
.	.	12a\
.	.	12b-\J
=65	=65	=65
4e-/	2.E-\	12gg-\L
.	.	12a\
.	.	12b-\J
4f/	.	12ff\L
.	.	12a\
.	.	12b-\J
4g-/)	.	12ee-\L
.	.	12a\
.	.	12b-\J
*v	*v	*
=66	=66
[2.A-\ [2.d-\ [2.f\	12dd-\L
.	12g\
.	12a-\J
.	12ff\L
.	12cc\
.	12dd-\J
.	12aa-\L
.	12ee\
.	12ff\J
=67	=67
4A-\] 4d-\] 4f\]	12ddd-\L
.	12gg\
.	12aa-\J
4A-\ 4d-\ 4f\	12fff\L
.	12ccc\
.	12ddd-\J
4A-\ 4e-\ 4g-\	12eee-\L
.	12gg\
.	12aa-\J
=68	=68
4d-\ 4f\	12fff\L
.	12ggg-\
.	12aaa-\J
4r	12ddd-\L
.	12eee-\
.	12fff\J
4r	12bb-\L
.	12ccc\
.	12ddd-\J
=69	=69
2.r	12gg-\L
.	12aa-\
.	12bb-\J
.	12ee-\L
.	12ff\
.	12gg-\J
.	12cc\L
.	12dd-\
.	12ee-\J
=70	=70
*	*^
4r	4r	2.a-\
4c\	4ee-/ 4gg-/	.
4d-\	4dd-/ 4ff/	.
=71	=71	=71
4G-\	(8ff/L	4g-\ 4b-\
.	8ee-/)	.
4A-\	(8ee-/	4f\ 4a-\
.	8dd-/)	.
4A-\	(8dd-/	4e-\ 4g-\
.	8cc/J)	.
*	*v	*v
=72	=72
4D-\	12f/L 12dd-/
.	12g-/
.	12a-/J
4r	12d-/L
.	12e-/
.	12f/J
4r	12B-/L
.	12c/
.	12d-/J
=73	=73
12G-\L	2.r
12A-\	.
12B-\J	.
12E-\L	.
12F\	.
12G-\J	.
12C\L	.
12D-\	.
12E-\J	.
=74	=74
4AA-/	4r
4C/	4e-/ 4g-/
4D-\	4d-/ 4f/
=75	=75
4GG-\ 4B-\	8f/L
.	8e-/J
4GG-\ 4B-\	8r
.	(8e-/L
4r	8b-/)
.	8g-'/J
=76	=76
4r	(8f/L
.	8e-/J)
4GG-\ 4B-\	8r
.	(8e-/L
4r	8b-/)
.	8g-'/J
=77	=77
4r	(8f/L
.	8f-/J)
4GG\ 4B-\	8r
.	(8e/L
4r	8b-/)
.	8g'/J
=78	=78
4r	(8g-/L
.	8f/J)
4AA\ 4c\	8r
.	8ee-\L
4r	8cc\
.	8b-\J
=79	=79
2.r	(4b-\
.	8a\L)
.	8b-\
.	8cc\
.	8dd-\J
=80	=80
2.r	4ff\
.	8ee-\L
.	8eee-\
.	8eee-\
.	8eee-\J
=81	=81
2.r	2.eee-\
=82:|!	=82:|!
2.r	(4ff\
.	8ee-\L)
.	8gg-'\
.	8ff'\
.	8ee-'\J
=83	=83
2.r	(4ee-\
.	8dd\L)
.	8ee-\
.	8ff\
.	8gg-\J
=84	=84
2.r	(4bb-\
.	8aa-\L)
.	8ccc-'\
.	8bb-'\
.	8aa-'\J
=85	=85
*clefG2	*
4e-/	4b-\ 4gg-\
4f/	4b-\ 4ff\
4g-/	4b-\ 4ee-\
=86	=86
2.a-/	2b\ 2ee-\
.	4dd\
=87	=87
4g-/ 4b-/	4ee-\
4f/ 4b-/	4ff\
4e-/ 4b-/	4gg-\
=88	=88
2.d/ 2.b-/	2bb-\
.	4aa-\
=89	=89
*clefF4	*
*	*^
4E-\ 4e-\	4ee-\	4gg-/
*	*v	*v
4E-\ 4d-\	4ee-\ 4ff\ 4eee-\
4E-\ 4d-\	4ee-\ 4gg\ 4eee-\
=90	=90
2.A-\ 2.c-\	2ee-\ 2aa-\ 2eee-\
.	8ddd-\L
.	8ccc-\J
=91	=91
*clefG2	*
*	*^
4r	8bb-/L	2.cc-\
.	8aa-/	.
4a-/	8gg/	.
.	8aa-/	.
4a-/	8ccc-/	.
.	8aa-/J	.
=92	=92	=92
2a-/	(4gg-/	2.cc-\
.	4ff/)	.
8g-/L	4gg-/	.
8f/J	.	.
=93	=93	=93
8e-/L	2.aa-/	4r
8d-/	.	.
8c/	.	4dd-\
8d-/	.	.
8f/	.	4dd-\
8d-/J	.	.
=94	=94	=94
4G-/	4aa-/	2b-\ 2dd-\
4r	4gg-/	.
4r	4aa-/	8cc-\L
.	.	8b-\J
*	*v	*v
=95	=95
8a-/L	4dd-\ 4bb-\
8g-/	.
8f/	4gg-\
8g-/	.
8b-/	4gg-\
8g-/J	.
=96	=96
4e-/	2gg-\
4c/ 4e-/	.
4d-/ 4f/	8ff\L
.	8ee-\J
=97	=97
4e-/ 4g-/	8dd-\L
.	8cc\
4e-/ 4g-/	8b\
.	8cc\
4e-/ 4g-/	8ee-\
.	8cc\J
=98	=98
*clefF4	*
*^	*
2g-/	[2.F\	2.a/
8f/L	.	.
8e-/J	.	.
=99	=99	=99
8d-/L	2.F\]	4b-\
8c/	.	.
8B-/	.	4ddd-\
8A-/	.	.
8G/	.	4ddd-\
8f/J	.	.
=100	=100	=100
4e/	[2.F\	2ddd-\
4e/	.	.
4e/	.	8ccc\L
.	.	8bb-\J
=101	=101	=101
4f/	2.F\]	8aa\L
.	.	8ff\
4r	.	8ee\
.	.	8ff\
4r	.	8aa\
.	.	8ff\J
*v	*v	*
=102	=102
*	*^
[2.F\	2gg-/	4a\
.	.	4a\
.	8ff/L	4a\
.	8ee-/J	.
=103	=103	=103
2.F\_	8dd-/L	8b-\L
.	8cc/	8a\
.	8ff/	8b-\ 8dd-\
.	8ee-/	8cc\
.	8ff/	8b-\ 8dd-\
.	8cc/J	8a-\J
=104	=104	=104
2.F\] 2.g-\	4ff/	8b-\L
.	.	8a\
.	2ee/	8b-\
.	.	8dd-\
.	.	8cc\
.	.	8b-\J
*	*v	*v
=105	=105
4F\	8a\L 8ff\
.	8gg-\
4r	8ff\
.	8ee-\
4r	8dd-\
.	8cc\J
=106	=106
4B-\	8dd-\L
.	8ff\
4c\	8cc\
.	8ff\
[4d-\	8b-\
.	[8ff\J
=107	=107
*	*^
2.E-\ 2.G-\ 2.B-\ 2.d-\]	[2.gg-/	8ff\L]
.	.	8b-\
.	.	8ee-\
.	.	8dd-\
.	.	8cc\
.	.	8b-\J
=108	=108	=108
*^	*	*
4c/	2.A-\	8gg-/L]	4a-\
.	.	8aa-/	.
4d-/	.	8ff/	4r
.	.	8aa-/	.
4c/	.	8ee-/	[4ee-\
.	.	8aa-/J	.
*v	*v	*	*
=109	=109	=109
2.d-\	[2.ff/	8ee-\L]
.	.	8a-\
.	.	8dd-\
.	.	8cc\
.	.	8b-\
.	.	8a-\J
=110	=110	=110
2.G\ 2.B-\ 2.d-\	8ff/L]	2.b-\
.	8dd-/	.
.	8bb-/	.
.	8aa-/	.
.	8gg/	.
.	8ff/J	.
=111	=111	=111
8B-\L	2.ee/	4b-\
8d-\	.	.
8A-\	.	4cc\
8d-\	.	.
8G\	.	4dd-\
8d-\J	.	.
*	*v	*v
=112	=112
8A-\L	8ff\L
8c\	8cc\
8G\	8gg\
8c\	8cc\
8F\	8aa-\
8c\J	8cc\J
=113	=113
*	*^
4C\ 4E\	8gg\L	2.gg/
.	8cc\	.
4r	8b\	.
.	8cc\	.
4r	8dd-\	.
.	8cc\J	.
*	*v	*v
=114	=114
8A-\L	8gg-\L
8c\ 8e-\	8a-\ 8cc\ 8ee-\
8A-\	8gg-\
8c\ 8e-\	8a-\ 8cc\ 8ee-\
8A-\	8gg-\
8c\J 8e-\	8a-\J 8cc\ 8ee-\
=115	=115
4d-\ 4f\	8ff\L
.	8cc\
4r	8dd-\
.	8cc\
4r	8b-\
.	8a-\J
=116	=116
8G-\L	8ff\L
8B-\ 8d-\	8g-\ 8b-\ 8dd-\
8G-\	8ff\
8B-\ 8d-\	8g-\ 8b-\ 8dd-\
8G-\	8ff\
8B-\J 8d-\	8g-\J 8b-\ 8dd-\
=117	=117
4c\ 4e-\	8ee-\L
.	8b-\
4r	8cc\
.	8dd-\
4r	8cc\
.	8b-\J
=118	=118
*^	*
4e-/	[2.F\	8gg-\L
.	.	8a\
8f/L	.	8ff\
8e-/	.	8a\
8d-/	.	8ff\
8c/J	.	8a\J
=119	=119	=119
4d-/	2.F\]	8gg-\L
.	.	8b-\
8e-/L	.	8ff\
8d-/	.	8b-\
8c/	.	8ff\
8B-/J	.	8b-\J
=120	=120	=120
*	*	*^
4c/	[2.F\	4ee-/	8r
.	.	.	[8f\
8d-/L	.	8ff/L	2f\]
8c/	.	8ee-/	.
8B-/	.	8dd-/	.
8A/J	.	8cc/J	.
*	*	*v	*v
=121	=121	=121
4B-/	2.F\]	8dd-\L
.	.	8f\
8g-/L	.	8ee-\
8f/	.	8dd-\
8e-/	.	8cc\
8d-/J	.	8b-\J
*v	*v	*
=122	=122
[2.F\ 2.A\	8ee-\L
.	8f\
.	8dd-\
.	8f\
.	8cc\
.	8f\J
=123	=123
*	*^
2.F\] 2.G\ 2.B-\	2.ee/	8dd-\L
.	.	8g\
.	.	8cc\
.	.	8g\
.	.	8b-\
.	.	8g\J
*	*v	*v
=124	=124
4F\ 4A\ 4c\	4a\ 4ff\
4r	4b-\ 4dd-\ 4gg-\
4r	4a-\ 4cc\ 4ff\
=125	=125
2.r	4g-\ 4b-\ 4ee-\
.	4f/ 4a-/ 4dd-/
.	4e-/ 4g-/ [4cc/
=126	=126
*	*^
2.d-\ 2.f\	4cc\]	(2ff/
.	4dd-\	.
*	*v	*v
.	[4b-\
=127	=127
*	*^
2.F\ 2.c\ 2.e-\	4b-\]	4ff/)
.	2a\	4gg-/
.	.	8ff/L
.	.	8ee-\J
*	*v	*v
=128	=128
4B-\	4f/ 4dd-/
4c\	4f/ 4cc/
4d-\	4f/ 4b-/
=129	=129
*	*^
2.e-\	2b-/	2.g-\
.	4a/	.
*	*v	*v
=130	=130
4d-\	4f/ 4b-/
4c\	4f/ 4cc/
4B-\	4f/ 4dd-/
=131	=131
*	*^
2.A\	2ff/	2.f\
.	4ee-/	.
*	*v	*v
=132	=132
4B-\ 4d-\	4b-\ 4dd-\
4B-\ 4c\ 4e-\	4a\ 4bb-\
4B-\ 4d\ 4f\	4a-\ 4bb-\
=133	=133
*	*^
2.E-\ [2.e-\	2bb-/	2.g-\
.	8aa-/L	.
.	8gg-/J	.
*	*v	*v
=134	=134
2.E-\ 2.e-\]	8ff\L
.	8ee-\
.	8dd-\
.	8cc\
.	8gg-\
.	8cc\J
=135	=135
*^	*
4d-/	2F\	2f/ 2b-/
4c/	.	.
*v	*v	*
4r	8a/
.	8r
=136	=136
4BB-/	4f/ 4dd-/
4C/	4e-/ 4f/ 4cc/
4D-\	4d-/ 4f/ 4b-/
=137	=137
*	*^
2F\ 2d-\	2b-/	8f\L
.	.	8g-\J
.	.	4f\
4E-\ 4c\	4a/	4f\
*	*v	*v
=138	=138
4D-\	4f/ 4b-/
4C/	4f/ 4cc/
4BB-/	4f/ 4dd-/
=139	=139
2B-\	4dd-\ 4ff\
.	2cc\ 2ee-\
4A\	.
=140	=140
4B-\ 4d-\	4b-\ 4dd-\
4B-\ 4c\ 4e-\	4a\ 4bb-\
4B-\ 4d\ 4f\	4a-\ 4bb-\
=141	=141
*	*^
2.E-\ [2.e-\	2bb-/	[2.g-\
.	8aa-/L	.
.	8gg-/J	.
=142	=142	=142
2.E-\ 2.e-\]	8ff/L	2.g-\]
.	8ee-/	.
.	8dd-/	.
.	8cc/	.
.	8ee-/	.
.	8cc/J	.
*	*v	*v
=143	=143
4r	8b-/L
.	8a/J
4G-\ 4c\ 4e-\	8r
.	8a\L
4r	8ee-\
.	8cc\J
=144	=144
4r	8b-/L
.	8a/J
4G-\ 4c\ 4e-\	8r
.	8a\L
4r	8ee-\
.	8cc\J
=145	=145
[2.F\ [2.A\ [2.c\ [2.e-\	8b-\L
.	8a\
.	8ee-\
.	8cc\
.	8ee\
.	8cc\J
=146	=146
2.F\] 2.A\] 2.c\] 2.e-\]	8ff\L
.	8cc\
.	8gg-\
.	8cc\
.	8ff\
.	8cc\J
=147	=147
[2.B-\ 2.d-\	4dd-\
.	4cc\
.	4b-\
=148	=148
2.B-\] 2.d\	2a/
.	4a-/
=149	=149
[2.B-\ [2.e-\ [2.g-\	4gg-\
.	4ff\
.	4ee-\
=150	=150
2.B-\] 2.e-\] 2.g-\]	4dd-\
.	4cc\
.	4b-\
=151	=151
[2.B-\ [2.e-\ [2.f\ [2.a\	4ccc\
.	4bb-\
.	4aa\
=152	=152
2.B-\] 2.e-\] 2.f\] 2.a-\	2gg-\
.	4ff\
=153	=153
*	*^
[2.B-\ [2.d-\ [2.f\	4fff/	2.dd-\
.	4eee-/	.
.	4ddd-/	.
=154	=154	=154
4B-\] 4d-\] 4f\]	4ccc/	4dd-\
4r	4bb-/	4r
4r	4aa-/	4r
*	*v	*v
=155	=155
2.r	4gg-\
.	8bb-\L
.	8ff\
.	8aa-\
.	8gg-\J
=156	=156
2.r	4ee-\
.	8gg-\L
.	8dd\
.	8ff\
.	8ee-\J
=157	=157
2.r	4b-\
.	4ee-\
.	4ff\
=158	=158
2.r	12aa-\L
.	12gg-\
.	12bb-\J
.	12ff\L
.	12aa-\
.	12gg-\J
.	12dd\L
.	12ff\
.	12ee-\J
=159	=159
2.r	12a/L
.	12b-/
.	12f/J
.	12a-/L
.	12g-/
.	12d/J
.	(12e-/L
.	12g-/
.	12b-/J
=160	=160
*MM40	*MM40
*	*^
4.F\ 4.c\	4b-/	&([2.e-\&)) 2.g-\
.	8a/	.
8r	8r	.
[4c\	4b-/	.
=161	=161	=161
8c\]	8a-/	2.e-\] 2.g-\
8r	8r	.
4.c\	(4b-/	.
.	8a-/)	.
8r	8r	.
*	*v	*v
=162	=162
*MM120	*MM120
*clefG2	*
4B-/ 4d-/ 4f/	12dd-\L
.	12a\
.	12b-\J
4B-/ 4d-/ 4f/	12dd-\L
.	12a\
.	12b-\J
4B-/ 4d-/ 4f/	12dd-\L
.	12a\
.	12b-\J
=163	=163
4B-/ 4f/ 4a-/	12dd\L
.	12cc-\
.	12b-\J
4B-/ 4f/ 4a-/	12dd\L
.	12cc-\
.	12b-\J
4B-/ 4f/ 4a-/	12dd\L
.	12cc-\
.	12b-\J
=164	=164
4B-/ 4e-/ 4g/	12ee-\L
.	12a\
.	12b-\J
4B-/ 4e-/ 4g/	12ee-\L
.	12a\
.	12b-\J
4B-/ 4e-/ 4g/	12ee-\L
.	12a\
.	12b-\J
=165	=165
2.B-/ 2.e-/ 2.g-/	12ccc\L
.	12dd\
.	12ee-\J
.	12bb-\L
.	12dd\
.	12ee-\J
.	12aa\L
.	12dd\
.	12ee-\J
=166	=166
4B-/ 4d-/ 4f/	12bb-\L
.	12a\
.	12b-\J
4B-/ 4d-/ 4f/	12dd-\L
.	12a\
.	12b-\J
4B-/ 4d-/ 4f/	12dd-\L
.	12a\
.	12b-\J
=167	=167
*^	*
2.a-/ 2.cc-/	4B-\	12ff\L
.	.	12cc#\
.	.	12dd\J
.	4B-\	12ff\L
.	.	12cc#\
.	.	12dd\J
.	4B-\	12ff\L
.	.	12cc#\
.	.	12dd\J
=168	=168	=168
2.e-/ 2.g-/ 2.b-/	4B-\	12gg-\L
.	.	12dd\
.	.	12ee-\J
.	4B-\	12gg-\L
.	.	12dd\
.	.	12ee-\J
.	4B-\	12gg-\L
.	.	12dd\
.	.	12ee-\J
*v	*v	*
=169	=169
2.B-/ 2.c/ 2.e-/ 2.g-/	12ccc\L
.	12dd\
.	12ee-\J
.	12bb-\L
.	12dd\
.	12ee-\J
.	12aa\L
.	12dd\
.	12ee-\J
=170	=170
*clefF4	*
4B-\ 4d-\ 4f\	12bb-\L
.	12cc\
.	12dd-\J
4r	12bb-\L
.	12cc\
.	12dd-\J
4r	12bb-\L
.	12cc\
.	12dd-\J
=171	=171
2.DD/ 2.D/	12aa-\L
.	12b-\
.	12cc-\J
.	12bb-\L
.	12b-\
.	12cc-\J
.	12aa-\L
.	12b-\
.	12cc-\J
=172	=172
4EE-/ 4E-/	12gg-\L
.	12a\
.	12b-\J
4r	12gg-\L
.	12a\
.	12b-\J
4r	12gg-\L
.	12a\
.	12b-\J
=173	=173
2.BB-\ 2.B-\	12ff\L
.	12g\
.	12a-\J
.	12gg-\L
.	12g\
.	12a-\J
.	12ff\L
.	12g\
.	12a-\J
=174	=174
*^	*
(4B-/	[2.E-\	12ee-\L
.	.	12f\
.	.	12g-\J
4c/	.	12gg-\L
.	.	12f\
.	.	12g-\J
4d-/	.	12ff\L
.	.	12f\
.	.	12g-\J
=175	=175	=175
4c/	2.E-\]	12ee-\L
.	.	12f\
.	.	12g-\J
4B-/	.	12dd-/L
.	.	12f/
.	.	12g-/J
4e-/)	.	12cc/L
.	.	12f/
.	.	12g-/J
*v	*v	*
=176	=176
[2.F\ [2.B-\ [2.d-\	12b-/L
.	12e/
.	12f/J
.	12dd-\L
.	12a\
.	12b-\J
.	12ff\L
.	12cc\
.	12dd-\J
=177	=177
4F\] 4B-\] 4d-\]	12bb-\L
.	12ee\
.	12ff\J
4F\ 4B-\ 4d-\	12ddd-\L
.	12aa\
.	12bb-\J
4F\ 4c\ 4e-\	12ccc\L
.	12ee\
.	12ff\J
=178	=178
4B-\ 4d-\	12ddd-\L
.	12eee-\
.	12fff\J
4r	12bb-\L
.	12ccc\
.	12ddd-\J
4r	12gg-\L
.	12aa-\
.	12bb-\J
=179	=179
2.r	12ee-\L
.	12ff\
.	12gg-\J
.	12cc\L
.	12dd-\
.	12ee-\J
.	12a\L
.	12b-\
.	12cc\J
=180	=180
*	*^
4r	4r	2.f\
4A\	4cc/ 4ee-/	.
4B-\	4b-/ 4dd-/	.
=181	=181	=181
4E-\	(8dd-/L	4e-\ 4g-\
.	8cc/)	.
4F\	(8cc/	4d-\ 4f\
.	8b-/)	.
4F\	(8b-/	4c\ 4e-\
.	8a/J)	.
=182	=182	=182
8BB-/	4b-/	12d-\L
.	.	12e-\
8r	.	.
.	.	12f\J
*	*v	*v
12B-\L	4r
12c\	.
12d-\J	.
12G-\L	4r
12A-\	.
12B-\J	.
=183	=183
12E-\L	2.r
12F\	.
12G-\J	.
12C\L	.
12D-\	.
12E-\J	.
12AA/L	.
12BB-/	.
12C/J	.
=184	=184
4FF/	4r
4AA/	4G-/ 4c/ 4e-/
4BB-/	4F/ 4B-/ 4d-/
=185	=185
4EE-/ 4G-/	8d-/L
.	8c/J
4EE-/ 4G-/	8r
.	(8c/L
4r	8g-/
.	8e-/J
=186	=186
4r	8d-/L
.	8c/J)
4EE-/ 4G-/	8r
.	(8c/L
4r	8g-/
.	8e-/J
=187	=187
4r	8d-/L
.	8c-/J)
4EE-/ 4G-/	8r
.	(8c-/L
4r	8g-/
.	8e-/J
=188	=188
4r	8d-/L
.	8c-/J)
4EE-/ 4G-/	8r
.	(8g-/L
4r	8e-/
.	8c-/J)
=189	=189
2.r	(8B-/L
.	8c-/
.	8d-/
.	8e-/
.	8f-/
.	8g-/J)
=190	=190
*	*clefF4
*	*^
4r	2B-/	4r
4r	.	(4G-\
4FF/	4A/	8F\L
.	.	8E-\J
=191	=191	=191
4BB-/	4B-/	4D-\)
4BBB-/	2ryy	8r
.	.	8B-\L
4r	.	8A\
.	.	8B-\J
*	*v	*v
=192	=192
*	*clefG2
4BBB-/ 4BB-/	(8e-/L
.	8d/J)
4A-\ 4c-\	8r
.	(8d/L
4r	8a-/
.	8d/J)
=193	=193
4G-\ 4B-\	(8f/L
.	8e-/J)
4BBB-/ 4BB-/	8r
.	(8e-/L
4r	8d-/
.	8e-/J)
=194	=194
4EE-/ 4GG-/	(8b-/L
.	8a/J)
4BBB-/ 4BB-/	8r
.	(8a\L
4r	8ee-\
.	8a\J)
=195	=195
4DD-/ 4FF/	(8cc\L
.	8b-\J)
4BBB-/ 4BB-/	8r
.	(8b-/L
4r	8a/
.	8b-/J)
=196	=196
*^	*
2.A-/ 2.c-/	4r	(8ee-\L
.	.	8dd\J)
.	4BB-\	8r
.	.	(8ff\L
.	4r	8ee-\
.	.	8dd\J)
=197	=197	=197
2.G-/ 2.B-/	4r	(8ff\L
.	.	8ee-\J)
.	4BB-\	8r
.	.	(8gg-\L
.	4r	8ff\
.	.	8ee-\J)
=198	=198	=198
2.E-/ 2.G-/	4r	(8bb-\L
.	.	8aa\J)
.	4BB-\	8r
.	.	(8aa\L
.	4r	8eee-\
.	.	8aa\J)
=199	=199	=199
2D-/ 2F/	4r	(8ccc\L
.	.	8bb-\J)
.	4BB-\	8r
.	.	(8bb-\L
4D/	4r	8aa\
.	.	8bb-\J)
=200	=200	=200
2.E-/ 2.G-/	4r	(8eee-\L
.	.	8aa\J)
.	4BB-\	8r
.	.	(8aa\L
.	4r	8bb-\
.	.	8aa\J)
=201	=201	=201
[4D-/ 4F/	4r	(8ccc\L
.	.	8bb-\J)
(4D-/] 4B-/	4BB-\	8r
.	.	(8bb-\L
4D/ 4A-/	4r	8ccc-\
.	.	8bb-\J)
=202	=202	=202
4E-/ 4G-/	4r	(8eee-\L
.	.	8aa\J)
4D-/ 4F/	4BB-\	8r
.	.	(8aa\L
4C/) 4E-/	4r	8bb-\
.	.	8aa\J)
=203	=203	=203
2.D-/	[2.BB-\	(8bb-\L
.	.	8ddd-\
.	.	8ccc\
.	.	8bb-\
.	.	8aa-\
.	.	8gg-\J
=204	=204	=204
2.C/ 2.E-/ 2.A/	2.BB-\]	8ff\L
.	.	8gg-\
.	.	8ff\
.	.	8ee-\
.	.	8dd-\
.	.	8cc\J
=205	=205	=205
2.D-/ 2.F/ 2.B-/	[2.BB-\	8b-\L
.	.	8dd-\
.	.	8cc\
.	.	8b-\
.	.	8a-\
.	.	8g-\J
=206	=206	=206
2.E-/ 2.F/ 2.A/	2.BB-\]	8f/L
.	.	8g-/
.	.	8f/
.	.	8e-/
.	.	8d-/
.	.	8c/J
=207	=207	=207
4D-/ 4F/	[2.BB-\	8B-/L
.	.	8d-/
4r	.	8c/
.	.	8B-/
4r	.	8A-/
.	.	8G-/J
=208	=208	=208
(8F/L	2.BB-\]	2.A/) 2.e-/
8G-/	.	.
8F/	.	.
8E-/	.	.
8D-/	.	.
8C/J	.	.
*v	*v	*
=209	=209
8BB-/L	2.B-/ 2.d-/
8D-/	.
8C/	.
8BB-/	.
8AA-/	.
8GG-/J	.
=210	=210
*	*clefF4
8FF/L	2.E-\ 2.A\
8GG-/	.
8FF/	.
8EE-/	.
8DD-/	.
8CC/J	.
=211	=211
4BBB-/)	4D-\ 4B-\
4r	4r
4r	4r
=212	=212
4BBB-/ 4FF/	4F\ 4d-\
4r	4r
4r	4r
=213	=213
4BBB-/ 4FF/	4D-\ 4B-\
4r	4r
4r	4r
==	==
*-	*-
